assets/spark/icons/ConversationFill.svg

<svg viewBox="0 0 24 24" xmlns="http://www.w3.org/2000/svg">
<path d="M16.9294 5.68663V11.0323C16.9294 13.0599 15.3007 14.7189 13.3101 14.7189H5.52876C5.39628 14.7189 5.3123 14.7683 5.20581 14.8309C5.16683 14.8538 5.12484 14.8785 5.07635 14.9032L2.43431 16.8848C2.25335 17.023 2 16.894 2 16.6636V5.68663C2 3.65899 3.62866 2 5.61924 2H13.4006C15.3912 2 16.9294 3.56682 16.9294 5.68663Z" />
<path d="M18.5579 11.0322V7.71424C20.5485 7.8064 22.0867 9.46539 21.9962 11.4009V21.7234C21.9962 21.9446 21.7429 22.0829 21.5619 21.9446L19.1008 20.0645C19.0103 19.9723 18.8294 19.8801 18.6484 19.8801H11.4099C9.41935 19.8801 7.88117 18.3133 7.79069 16.3778H13.31C16.2054 16.3778 18.5579 13.9815 18.5579 11.0322Z" />
</svg>

<svg viewBox="0 0 24 24" xmlns="http://www.w3.org/2000/svg">
  <path d="m16.93,5.69v5.35c0,2.03-1.63,3.69-3.62,3.69h-7.78c-.13,0-.22.05-.32.11-.04.02-.08.05-.13.07l-2.64,1.98c-.18.14-.43,0-.43-.22V5.69c0-2.03,1.63-3.69,3.62-3.69h7.78c1.99,0,3.53,1.57,3.53,3.69Z"/>
  <path d="m18.56,11.03v-3.32c1.99.09,3.53,1.75,3.44,3.69v10.32c0,.22-.25.36-.43.22l-2.46-1.88c-.09-.09-.27-.18-.45-.18h-7.24c-1.99,0-3.53-1.57-3.62-3.5h5.52c2.9,0,5.25-2.4,5.25-5.35Z"/>
</svg>
